rospo-newyear-dark/symbolic/status/touchpad-enabled-symbolic.svg

<svg height="16" width="16" xmlns="http://www.w3.org/2000/svg"><path d="m1 1c-1 0-1 1-1 1v11s0 1 1 1h14s1 0 1-1v-11c0-1-1-1-1-1zm1 2h12v6h-12zm0 7h5v2h-5zm7 0h5v2h-5z" fill="#d3dae3"/></svg>

<svg xmlns="http://www.w3.org/2000/svg" width="16" height="16" version="1.1">
 <path style="fill:#d3dae3" d="M 1,1 C 0,1 0,2 0,2 V 13 C 0,13 0,14 1,14 H 15 C 15,14 16,14 16,13 V 2 C 16,1 15,1 15,1 Z M 2,3 H 14 V 9 H 2 Z M 2,10 H 7 V 12 H 2 Z M 9,10 H 14 V 12 H 9 Z"/>
</svg>
